libs/ui/packages/crypto-icons/src/svg/BIX.svg

<svg width="24" height="24" viewBox="0 0 24 24" fill="none">
<path d="M12.7057 18.4327C12.7448 18.5242 12.7657 18.624 12.7657 18.729C12.7657 19.155 12.4148 19.5 11.982 19.5C11.5492 19.5 11.1982 19.155 11.1982 18.729C11.1982 18.627 11.2185 18.5295 11.2552 18.4402L6.59775 15.795C6.52418 15.8698 6.43638 15.9292 6.33953 15.9697C6.24267 16.0101 6.13871 16.0308 6.03375 16.0305C5.601 16.0305 5.25 15.6855 5.25 15.2595C5.25 14.8995 5.49975 14.598 5.838 14.5125V9.24223C5.67087 9.20086 5.5223 9.10493 5.4158 8.96964C5.30931 8.83435 5.25096 8.66741 5.25 8.49523C5.25 8.06923 5.601 7.72423 6.03375 7.72423C6.29325 7.72423 6.5235 7.84873 6.66675 8.04073L11.2208 5.45323C11.2056 5.39367 11.1981 5.33243 11.1982 5.27098C11.1982 4.84498 11.55 4.49998 11.982 4.49998C12.099 4.49937 12.2146 4.52517 12.3203 4.57546C12.4259 4.62574 12.5189 4.69921 12.5922 4.7904C12.6655 4.88159 12.7173 4.98815 12.7437 5.10213C12.7701 5.21611 12.7705 5.33459 12.7448 5.44873L17.3258 8.05123C17.4683 7.85323 17.7015 7.72423 17.9662 7.72423C18.399 7.72423 18.75 8.06923 18.75 8.49523C18.75 8.85523 18.4987 9.15823 18.1597 9.24298L18.1462 14.508C18.492 14.5882 18.75 14.8942 18.75 15.2595C18.75 15.6855 18.399 16.0305 17.9662 16.0305C17.8568 16.0307 17.7486 16.0082 17.6484 15.9643C17.5482 15.9204 17.4582 15.8561 17.3843 15.7755L12.7057 18.4327ZM12.4965 18.1477L17.2118 15.4687C17.1677 15.3155 17.1729 15.1523 17.2267 15.0022L12.678 12.0772C12.5908 12.1694 12.4857 12.2428 12.3691 12.2928C12.2525 12.3429 12.1269 12.3685 12 12.3682C11.8586 12.3686 11.7189 12.3367 11.5917 12.2749C11.4645 12.2132 11.353 12.1233 11.2657 12.012L6.783 15.0322C6.82998 15.1828 6.82894 15.3443 6.78 15.4942L11.4615 18.153C11.6055 18.0269 11.7906 17.9576 11.982 17.958C12.1792 17.958 12.3593 18.0292 12.4965 18.147V18.1477ZM12.5858 5.76298C12.4791 5.88886 12.3356 5.97805 12.1755 6.01798L12.1635 10.56C12.3758 10.596 12.5687 10.7056 12.7081 10.8696C12.8476 11.0337 12.9249 11.2416 12.9263 11.457C12.9263 11.5702 12.9053 11.6797 12.8663 11.7795L17.4188 14.7075C17.52 14.61 17.6475 14.5402 17.79 14.508L17.8035 9.24973C17.6097 9.21022 17.4384 9.09811 17.3246 8.93635C17.2108 8.7746 17.1632 8.57546 17.1915 8.37973L12.5858 5.76298ZM11.382 5.76673L6.80625 8.36548C6.83874 8.56354 6.7931 8.76647 6.67895 8.93155C6.56479 9.09663 6.39103 9.21097 6.19425 9.25048V14.5042C6.35325 14.5372 6.49425 14.6167 6.60225 14.7292L11.106 11.6955C11.0743 11.5751 11.0675 11.4496 11.0859 11.3265C11.1044 11.2035 11.1478 11.0855 11.2134 10.9798C11.2791 10.874 11.3656 10.7828 11.4677 10.7117C11.5698 10.6405 11.6853 10.5909 11.8073 10.566L11.8193 6.02548C11.6489 5.99007 11.495 5.89905 11.382 5.76673Z" fill="black"/>
</svg>

<svg width="24" height="24" viewBox="0 0 24 24" fill="none"><path fill="#000" d="M12.706 18.433a.8.8 0 0 1 .06.296.777.777 0 0 1-.784.771.777.777 0 0 1-.784-.771q0-.154.057-.289l-4.657-2.645a.8.8 0 0 1-.564.236.777.777 0 0 1-.784-.771c0-.36.25-.662.588-.748v-5.27a.774.774 0 0 1-.588-.747c0-.426.351-.77.784-.77.26 0 .49.124.633.316l4.554-2.588a.7.7 0 0 1-.023-.182c0-.426.352-.771.784-.771a.778.778 0 0 1 .763.949l4.58 2.602a.79.79 0 0 1 .641-.327c.433 0 .784.345.784.771 0 .36-.251.663-.59.748l-.014 5.265c.346.08.604.386.604.752a.777.777 0 0 1-.784.77.8.8 0 0 1-.582-.255zm-.21-.285 4.716-2.68a.76.76 0 0 1 .015-.466l-4.549-2.925a.93.93 0 0 1-1.086.198.9.9 0 0 1-.326-.263l-4.483 3.02a.76.76 0 0 1-.003.462l4.681 2.659a.79.79 0 0 1 1.036-.006m.09-12.385a.8.8 0 0 1-.41.255l-.012 4.542a.916.916 0 0 1 .762.897.9.9 0 0 1-.06.322l4.553 2.928a.8.8 0 0 1 .371-.199l.014-5.258a.775.775 0 0 1-.612-.87zm-1.204.004L6.806 8.365a.775.775 0 0 1-.612.885v5.254c.16.033.3.113.408.225l4.504-3.033a.917.917 0 0 1 .701-1.13l.012-4.54a.8.8 0 0 1-.437-.26"/></svg>
